X:38
T:Larietts Fancy. RH.038
R:Jig
S:Rev.R.Harrison’s MS,c1815,Cumbria
O:England
A:Temple Sowerby,Cumbria
Z:vmp.Simon Wilson. Review PJH, 2008.
M:6/8
L:1/8
Q:3/8=110
K:D
A|d>ed dfa|g2e e2g|f2d dcd|e2A A2A|!
d>ed dfa|g2e e2g|f2d ede|d3 d2||!
A|f2f fgf|e2e efe|d2d dfa|e2e e2A|!
f2f fgf|e2e efe|d2e f2^g|a3 ” DC”a2|]

